img/logos/ehl.svg

<svg height="52" viewBox="0 0 47 52" width="47" xmlns="http://www.w3.org/2000/svg"><g fill="none" fill-rule="evenodd" transform="translate(-2)"><path d="m.410923 0h49.275362v53.623188h-49.275362z"/><path d="m22.8419651 48.9277795-2.8143992-5.7306724h-1.5381019v8.2521683h1.374474v-5.894406h.0327256l2.8798504 5.894406h1.4726508v-8.2521683h-1.4071997zm-6.5778401-11.5268383-1.2762973 4.4208045h.7854137l.2618046-.9169076h1.3090229l.229079.9169076h.8181393l-1.2435717-4.4208045c-.0327256 0-.8835905 0-.8835905 0zm-.0327256 2.7507228.4581581-1.7355751.4254324 1.7355751zm-5.1379149-.5239472c0-2.0630421-1.24357173-2.3250157-1.70172975-2.3250157s-1.70172978.2619736-1.70172978 2.3250157 1.24357176 2.3250157 1.70172978 2.3250157c.19635344 0 .58906031-.0654934.91631605-.2947203l.4254324.4912005.3927069-.4912005-.3927069-.4584538c.1963535-.3602137.3599813-.8514142.3599813-1.5718416zm-.8835904.9169076-.3927069-.4257071-.39270688.4912005.3599813.4257071c-.13090229.0982401-.26180458.1309868-.39270687.1309868-.39270687 0-.98176718-.2947203-.98176718-1.5390949s.55633474-1.5390949.98176718-1.5390949c.39270687 0 .98176715.2947203.98176715 1.5390949-.0327255.3929604-.0654511.7204274-.1636278.9169076zm8.6395512-3.1436832v4.4208045h2.5198691v-.7859208h-1.767181v-3.602137zm7.886863 4.4208045h.7526882v-4.4208045h-.7526882v1.6700817h-1.3744741v-1.6700817h-.7526881v4.4208045h.7526881v-1.964802h1.3744741zm-13.941094 6.0253927h3.4361851v-1.4736015h-3.4361851v-1.7355751h3.7307153v-1.4408547h-5.1706405v8.2521683h5.3342684v-1.4736015h-3.8943432zm-5.62879849-9.6602764v-.7859208h-2.61804582v4.4208045h2.68349696v-.7859208h-1.96353436v-1.1461345h1.73445536v-.7859208h-1.73445536v-.9169076zm-.98176718 5.0102451h-1.47265077v8.2521683h4.97428705v-1.5063482h-3.50163628zm5.49789617-5.7961659v2.9144563c0 .4584538.0981768.7859208.2618046 1.0806411.3272557.4257071.8181393.5239472 1.1453951.5239472.8835904 0 1.4726507-.4912005 1.4726507-1.6700817v-2.8817096h-.7526881v2.9144563c0 .5239472-.1963535.8514142-.7199626.8514142-.3599813 0-.6217859-.2619736-.6217859-.8841609v-2.8489629zm27.194951 4.4208045h.7526881v-4.4208045h-.7526881zm7.9195885 7.7609678c0-1.5390949-.3272557-1.8010685-.8835904-2.0957888.687237-.2619736 1.0799439-1.0478944 1.0799439-1.964802 0-.7204274-.3599813-2.3250156-2.225339-2.3250156h-3.5670874v8.2521683h1.4399252v-3.2419233h1.5053764c1.0799439 0 1.145395.4257071 1.145395 1.5718416 0 .8514142.0654511 1.2771213.1636279 1.6700817h1.6362786v-.2292269c-.2945302-.1309868-.2945302-.4257071-.2945302-1.637335zm-2.4216923-2.7507228h-1.7344554v-2.1940289h1.8326321c.8508649 0 1.0144927.654934 1.0144927 1.0806411.0327256.7859208-.3272557 1.1133878-1.1126694 1.1133878zm-7.4614306-5.665179c-.6545115 0-.7526882-.4584538-.7526882-.7204274h-.7199626c0 .5566939.229079 1.4736015 1.5053764 1.4736015.3272557 0 1.4071996-.1309868 1.4071996-1.4408548 0-.7859208-.458158-1.0478944-.916316-1.1788812l-.8508649-.2619736c-.1636279-.0327467-.3599813-.1309868-.3599813-.4584538 0-.3929604.3272557-.5239472.6217858-.5239472.6545115 0 .7199626.4584538.7199626.654934h.7199626c0-.5566939-.2945301-1.4081081-1.374474-1.4081081-1.1453951 0-1.3744741.8514142-1.3744741 1.3426147 0 .982401.5563348 1.1461345 1.1126695 1.309868l.3927069.0982401c.3927069.0982401.6545114.1964802.6545114.5566939-.0327255.4584538-.4254324.5566939-.7854137.5566939zm6.2505844.654934v-4.4208045h-.6872371v3.0781898l-1.4071996-3.0781898h-.7854137v4.4208045h.687237v-3.1436832l1.4399252 3.1436832zm2.3562412-3.7658705c.5236092 0 .7854138.5566939.7854138.7204274h.7526881c-.0327255-.6221873-.458158-1.4736015-1.5708275-1.4736015-1.2108462 0-1.7344553 1.1133878-1.7344553 2.3250157 0 1.5390949.7854137 2.3250157 1.6362786 2.3250157.6545115 0 .9163161-.3929604 1.1126695-.6876807l.0654511.5566939h.4908836v-2.3905091h-1.4726507v.7531741h.8181393c-.1636279.8841609-.6872371.982401-.8508649.982401-.4908836 0-1.0472183-.327467-1.0472183-1.5063482-.0327256-1.1461345.458158-1.6045883 1.0144927-1.6045883zm-10.6030855 2.2267756v-2.8817096h-.7526882v2.9144563c0 .5239472-.1963535.8514142-.7199626.8514142-.3599813 0-.6217859-.2619736-.6217859-.8841609v-2.8489629h-.7526882v2.9144563c0 .4584538.0981767.7859208.2618046 1.0806411.3272557.4257071.7854138.5239472 1.1126695.5239472.8835904-.0327467 1.4726508-.5239472 1.4726508-1.6700817zm.5236091 7.5644876h3.4361852v-1.4736015h-3.4361852v-1.7355751h3.7634409v-1.4408547h-5.1706405v8.2521683h5.3342683v-1.4736015h-3.8943431zm-3.9925198-8.2521683c0-2.0630421-1.2435718-2.3250157-1.7017298-2.3250157s-1.7017298.2619736-1.7017298 2.3250157 1.2435718 2.3250157 1.7017298 2.3250157c.4908836 0 1.7017298-.2292269 1.7017298-2.3250157zm-2.6507714 0c0-1.2443746.5563347-1.5390949.9817671-1.5390949.3927069 0 .9817672.2947203.9817672 1.5390949s-.5563347 1.5390949-.9817672 1.5390949c-.4254324.0327467-.9817671-.2947203-.9817671-1.5390949zm.5890603 3.602137h-3.1089294v8.2521683h3.0434782c2.3235157 0 2.912576-2.5542426 2.912576-4.3225644.0327256-1.5718416-.458158-3.9296039-2.8471248-3.9296039zm-.229079 6.8113135h-1.4399252v-5.4032055h1.4071996c.6217859 0 1.6035531.1964802 1.6035531 2.619736.0327255 1.3753614-.3927069 2.7834695-1.5708275 2.7834695zm-3.7307153-49.28378292-22.84244977 11.72331842v4.7482715l2.5198691.0327467v17.0610305h40.44880787l-.0327256-17.0937772h2.7162225v-4.7482715zm15.6428237 29.04632252h-31.44927534v-15.1617219l15.80645164-8.15392819 15.6428237 8.15392819zm-23.1369799-11.1666245h14.8246845v-4.0933375h-14.8246845zm0 7.3680074h14.7592333v-4.0933375h-14.7592333z" fill="#fff" fill-rule="nonzero"/></g></svg>

<?xml version="1.0" encoding="UTF-8"?>
<svg width="47px" height="52px" viewBox="0 0 47 52" version="1.1" xmlns="http://www.w3.org/2000/svg"
     xmlns:xlink="http://www.w3.org/1999/xlink">
    <!-- Generator: Sketch 55.2 (78181) - https://sketchapp.com -->
    <title>logo--equal-housing-lender</title>
    <desc>Created with Sketch.</desc>
    <g id="Symbols" stroke="none" stroke-width="1" fill="none" fill-rule="evenodd">
        <g id="Footer" transform="translate(-1252.000000, -41.000000)">
            <g id="logo--equal-housing-lender">
                <g transform="translate(1250.000000, 41.000000)">
                    <rect id="Rectangle" x="0.410922587" y="0" width="49.2753623" height="53.6231884"></rect>
                    <path d="M22.8419651,48.9277795 L22.8419651,48.9277795 L20.0275659,43.1971071 L18.489464,43.1971071 L18.489464,51.4492754 L19.863938,51.4492754 L19.863938,45.5548694 L19.8966636,45.5548694 L22.776514,51.4492754 L24.2491648,51.4492754 L24.2491648,43.1971071 L22.8419651,43.1971071 L22.8419651,48.9277795 L22.8419651,48.9277795 Z M16.264125,37.4009412 L14.9878277,41.8217457 L15.7732414,41.8217457 L16.035046,40.9048381 L17.3440689,40.9048381 L17.5731479,41.8217457 L18.3912872,41.8217457 L17.1477155,37.4009412 C17.1149899,37.4009412 16.264125,37.4009412 16.264125,37.4009412 Z M16.2313994,40.151664 L16.6895575,38.4160889 L16.6895575,38.4160889 L17.1149899,40.151664 L16.2313994,40.151664 Z M11.0934845,39.6277168 C11.0934845,37.5646747 9.84991277,37.3027011 9.39175475,37.3027011 C8.93359673,37.3027011 7.69002497,37.5646747 7.69002497,39.6277168 C7.69002497,41.6907589 8.93359673,41.9527325 9.39175475,41.9527325 C9.58810819,41.9527325 9.98081506,41.8872391 10.3080708,41.6580122 L10.7335032,42.1492127 L11.1262101,41.6580122 L10.7335032,41.1995584 C10.9298567,40.8393447 11.0934845,40.3481442 11.0934845,39.6277168 L11.0934845,39.6277168 Z M10.2098941,40.5446244 L9.8171872,40.1189173 L9.42448032,40.6101178 L9.78446162,41.0358249 C9.65355933,41.134065 9.52265704,41.1668117 9.39175475,41.1668117 C8.99904788,41.1668117 8.40998757,40.8720914 8.40998757,39.6277168 C8.40998757,38.3833422 8.96632231,38.0886219 9.39175475,38.0886219 C9.78446162,38.0886219 10.3735219,38.3833422 10.3735219,39.6277168 C10.3407964,40.0206772 10.3080708,40.3481442 10.2098941,40.5446244 L10.2098941,40.5446244 Z M18.8494453,37.4009412 L18.8494453,41.8217457 L21.3693144,41.8217457 L21.3693144,41.0358249 L19.6021334,41.0358249 L19.6021334,37.4336879 L18.8494453,37.4009412 L18.8494453,37.4009412 Z M26.7363083,41.8217457 L27.4889965,41.8217457 L27.4889965,37.4009412 L26.7363083,37.4009412 L26.7363083,39.0710229 L25.3618342,39.0710229 L25.3618342,37.4009412 L24.6091461,37.4009412 L24.6091461,41.8217457 L25.3618342,41.8217457 L25.3618342,39.8569437 L26.7363083,39.8569437 L26.7363083,41.8217457 L26.7363083,41.8217457 Z M12.7952143,47.8471384 L16.2313994,47.8471384 L16.2313994,46.3735369 L12.7952143,46.3735369 L12.7952143,44.6379618 L16.5259296,44.6379618 L16.5259296,43.1971071 L11.3552891,43.1971071 L11.3552891,51.4492754 L16.6895575,51.4492754 L16.6895575,49.9756739 L12.7952143,49.9756739 L12.7952143,47.8471384 L12.7952143,47.8471384 Z M7.16641581,38.186862 L7.16641581,37.4009412 L4.54836999,37.4009412 L4.54836999,41.8217457 L7.23186695,41.8217457 L7.23186695,41.0358249 L5.26833259,41.0358249 L5.26833259,39.8896904 L7.00278795,39.8896904 L7.00278795,39.1037696 L5.26833259,39.1037696 L5.26833259,38.186862 C5.26833259,38.186862 7.16641581,38.186862 7.16641581,38.186862 Z M6.18464863,43.1971071 L4.71199786,43.1971071 L4.71199786,51.4492754 L9.68628491,51.4492754 L9.68628491,49.9429272 L6.18464863,49.9429272 L6.18464863,43.1971071 L6.18464863,43.1971071 Z M11.6825448,37.4009412 L11.6825448,40.3153975 C11.6825448,40.7738513 11.7807216,41.1013183 11.9443494,41.3960386 C12.2716051,41.8217457 12.7624887,41.9199858 13.0897445,41.9199858 C13.9733349,41.9199858 14.5623952,41.4287853 14.5623952,40.2499041 L14.5623952,37.3681945 L13.8097071,37.3681945 L13.8097071,40.2826508 C13.8097071,40.806598 13.6133536,41.134065 13.0897445,41.134065 C12.7297632,41.134065 12.4679586,40.8720914 12.4679586,40.2499041 L12.4679586,37.4009412 L11.6825448,37.4009412 L11.6825448,37.4009412 Z M38.8774958,41.8217457 L39.6301839,41.8217457 L39.6301839,37.4009412 L38.8774958,37.4009412 L38.8774958,41.8217457 L38.8774958,41.8217457 Z M46.7970843,49.5827135 C46.7970843,48.0436186 46.4698286,47.781645 45.9134939,47.4869247 C46.6007309,47.2249511 46.9934378,46.4390303 46.9934378,45.5221227 C46.9934378,44.8016953 46.6334565,43.1971071 44.7680988,43.1971071 L41.2010114,43.1971071 L41.2010114,51.4492754 L42.6409366,51.4492754 L42.6409366,48.2073521 L44.146313,48.2073521 C45.2262569,48.2073521 45.291708,48.6330592 45.291708,49.7791937 C45.291708,50.6306079 45.3571591,51.056315 45.4553359,51.4492754 L47.0916145,51.4492754 L47.0916145,51.2200485 C46.7970843,51.0890617 46.7970843,50.7943414 46.7970843,49.5827135 L46.7970843,49.5827135 Z M44.375392,46.8319907 L42.6409366,46.8319907 L42.6409366,44.6379618 L44.4735687,44.6379618 C45.3244336,44.6379618 45.4880614,45.2928958 45.4880614,45.7186029 C45.520787,46.5045237 45.1608057,46.8319907 44.375392,46.8319907 L44.375392,46.8319907 Z M36.9139614,41.1668117 C36.2594499,41.1668117 36.1612732,40.7083579 36.1612732,40.4463843 L35.4413106,40.4463843 C35.4413106,41.0030782 35.6703896,41.9199858 36.946687,41.9199858 C37.2739427,41.9199858 38.3538866,41.788999 38.3538866,40.479131 C38.3538866,39.6932102 37.8957286,39.4312366 37.4375706,39.3002498 L36.5867057,39.0382762 C36.4230778,39.0055295 36.2267244,38.9072894 36.2267244,38.5798224 C36.2267244,38.186862 36.5539801,38.0558752 36.8485102,38.0558752 C37.5030217,38.0558752 37.5684728,38.514329 37.5684728,38.7108092 L38.2884354,38.7108092 C38.2884354,38.1541153 37.9939053,37.3027011 36.9139614,37.3027011 C35.7685663,37.3027011 35.5394873,38.1541153 35.5394873,38.6453158 C35.5394873,39.6277168 36.0958221,39.7914503 36.6521568,39.9551838 L37.0448637,40.0534239 C37.4375706,40.151664 37.6993751,40.2499041 37.6993751,40.6101178 C37.6666496,41.0685716 37.2739427,41.1668117 36.9139614,41.1668117 L36.9139614,41.1668117 Z M43.1645458,41.8217457 L43.1645458,37.4009412 L42.4773087,37.4009412 L42.4773087,40.479131 L42.4773087,40.479131 L41.0701091,37.4009412 L40.2846954,37.4009412 L40.2846954,41.8217457 L40.9719324,41.8217457 L40.9719324,38.6780625 L40.9719324,38.6780625 L42.4118576,41.8217457 L43.1645458,41.8217457 L43.1645458,41.8217457 Z M45.520787,38.0558752 C46.0443962,38.0558752 46.3062008,38.6125691 46.3062008,38.7763026 L47.0588889,38.7763026 C47.0261634,38.1541153 46.6007309,37.3027011 45.4880614,37.3027011 C44.2772152,37.3027011 43.7536061,38.4160889 43.7536061,39.6277168 C43.7536061,41.1668117 44.5390198,41.9527325 45.3898847,41.9527325 C46.0443962,41.9527325 46.3062008,41.5597721 46.5025542,41.2650518 L46.5680053,41.8217457 L47.0588889,41.8217457 L47.0588889,39.4312366 L45.5862382,39.4312366 L45.5862382,40.1844107 L46.4043775,40.1844107 C46.2407496,41.0685716 45.7171404,41.1668117 45.5535126,41.1668117 C45.062629,41.1668117 44.5062943,40.8393447 44.5062943,39.6604635 C44.4735687,38.514329 44.9644523,38.0558752 45.520787,38.0558752 L45.520787,38.0558752 Z M34.9177015,40.2826508 L34.9177015,37.4009412 L34.1650133,37.4009412 L34.1650133,40.3153975 C34.1650133,40.8393447 33.9686598,41.1668117 33.4450507,41.1668117 C33.0850694,41.1668117 32.8232648,40.9048381 32.8232648,40.2826508 L32.8232648,37.4336879 L32.0705766,37.4336879 L32.0705766,40.3481442 C32.0705766,40.806598 32.1687533,41.134065 32.3323812,41.4287853 C32.6596369,41.8544924 33.117795,41.9527325 33.4450507,41.9527325 C34.3286411,41.9199858 34.9177015,41.4287853 34.9177015,40.2826508 L34.9177015,40.2826508 Z M35.4413106,47.8471384 L38.8774958,47.8471384 L38.8774958,46.3735369 L35.4413106,46.3735369 L35.4413106,44.6379618 L39.2047515,44.6379618 L39.2047515,43.1971071 L34.034111,43.1971071 L34.034111,51.4492754 L39.3683793,51.4492754 L39.3683793,49.9756739 L35.4740362,49.9756739 L35.4413106,47.8471384 L35.4413106,47.8471384 Z M31.4487908,39.5949701 C31.4487908,37.531928 30.205219,37.2699544 29.747061,37.2699544 C29.288903,37.2699544 28.0453312,37.531928 28.0453312,39.5949701 C28.0453312,41.6580122 29.288903,41.9199858 29.747061,41.9199858 C30.2379446,41.9199858 31.4487908,41.6907589 31.4487908,39.5949701 Z M28.7980194,39.5949701 C28.7980194,38.3505955 29.3543541,38.0558752 29.7797865,38.0558752 C30.1724934,38.0558752 30.7615537,38.3505955 30.7615537,39.5949701 C30.7615537,40.8393447 30.205219,41.134065 29.7797865,41.134065 C29.3543541,41.1668117 28.7980194,40.8393447 28.7980194,39.5949701 L28.7980194,39.5949701 Z M29.3870797,43.1971071 L26.2781503,43.1971071 L26.2781503,51.4492754 L29.3216285,51.4492754 C31.6451442,51.4492754 32.2342045,48.8950328 32.2342045,47.126711 C32.2669301,45.5548694 31.7760465,43.1971071 29.3870797,43.1971071 L29.3870797,43.1971071 Z M29.1580007,50.0084206 L27.7180755,50.0084206 L27.7180755,44.6052151 L29.1252751,44.6052151 C29.747061,44.6052151 30.7288282,44.8016953 30.7288282,47.2249511 C30.7615537,48.6003125 30.3361213,50.0084206 29.1580007,50.0084206 L29.1580007,50.0084206 Z M25.4272854,0.724637681 L2.58483563,12.4479561 L2.58483563,17.1962276 L5.10470473,17.2289743 L5.10470473,34.2900048 L45.5535126,34.2900048 L45.520787,17.1962276 L48.2370095,17.1962276 L48.2370095,12.4479561 L25.4272854,0.724637681 L25.4272854,0.724637681 Z M41.0701091,29.7709602 L9.62083376,29.7709602 L9.62083376,14.6092383 L25.4272854,6.45531011 L41.0701091,14.6092383 L41.0701091,29.7709602 L41.0701091,29.7709602 Z M17.9331292,18.6043357 L32.7578137,18.6043357 L32.7578137,14.5109982 L17.9331292,14.5109982 C17.9331292,14.5109982 17.9331292,18.6043357 17.9331292,18.6043357 Z M17.9331292,25.9723431 L32.6923625,25.9723431 L32.6923625,21.8790056 L17.9331292,21.8790056 L17.9331292,25.9723431 Z"
                          id="Shape" fill="#FFFFFF" fill-rule="nonzero"></path>
                </g>
            </g>
        </g>
    </g>
</svg>
